Newaita/actions/22/go-home.svg

<svg height="22" viewBox="0 0 22 22" width="22" xmlns="http://www.w3.org/2000/svg"><g fill="#424242"><path d="m10.9375 1.996094c-.226562-.007813-.453125.074218-.625.226562l-8.183594 7.277344c-.28125.25-.378906.648438-.246094 1 .132813.351562.46875.582031.847657.582031h.90625v8.191407c0 .503906.40625.910156.910156.910156h12.734375c.503906 0 .910156-.40625.910156-.910156v-8.191407h.910156c.375 0 .710938-.230469.847657-.582031.132812-.351562.035156-.75-.246094-1l-8.1875-7.277344c-.160156-.140625-.363281-.222656-.578125-.226562zm-.023438 2.117187 5.925782 5.265625c-.328125.179688-.515625.542969-.46875.917969v7.613281c0 .25-.203125.453125-.453125.453125h-10.003907c-.253906 0-.457031-.203125-.457031-.453125v-7.632812c.042969-.367188-.144531-.722656-.46875-.898438zm0 0"/><path d="m8.640625 11.085938c-.503906 0-.910156.40625-.910156.910156v7.503906h.910156v-7.046875c0-.253906.203125-.457031.457031-.457031h3.636719c.25 0 .453125.203125.453125.457031v7.046875h.910156v-7.503906c0-.503906-.40625-.910156-.910156-.910156zm0 0"/></g></svg>

<?xml version="1.0" encoding="UTF-8"?>
<svg xmlns="http://www.w3.org/2000/svg" xmlns:xlink="http://www.w3.org/1999/xlink" width="22px" height="22px" viewBox="0 0 22 22" version="1.1">
<g id="surface1">
<path style=" stroke:none;fill-rule:nonzero;fill:rgb(25.882354%,25.882354%,25.882354%);fill-opacity:1;" d="M 10.9375 1.996094 C 10.710938 1.988281 10.484375 2.070312 10.3125 2.222656 L 2.128906 9.5 C 1.847656 9.75 1.75 10.148438 1.882812 10.5 C 2.015625 10.851562 2.351562 11.082031 2.730469 11.082031 L 3.636719 11.082031 L 3.636719 19.273438 C 3.636719 19.777344 4.042969 20.183594 4.546875 20.183594 L 17.28125 20.183594 C 17.785156 20.183594 18.191406 19.777344 18.191406 19.273438 L 18.191406 11.082031 L 19.101562 11.082031 C 19.476562 11.082031 19.8125 10.851562 19.949219 10.5 C 20.082031 10.148438 19.984375 9.75 19.703125 9.5 L 11.515625 2.222656 C 11.355469 2.082031 11.152344 2 10.9375 1.996094 Z M 10.914062 4.113281 L 16.839844 9.378906 C 16.511719 9.558594 16.324219 9.921875 16.371094 10.296875 L 16.371094 17.910156 C 16.371094 18.160156 16.167969 18.363281 15.917969 18.363281 L 5.914062 18.363281 C 5.660156 18.363281 5.457031 18.160156 5.457031 17.910156 L 5.457031 10.277344 C 5.5 9.910156 5.3125 9.554688 4.988281 9.378906 Z M 10.914062 4.113281 "/>
<path style=" stroke:none;fill-rule:nonzero;fill:rgb(25.882354%,25.882354%,25.882354%);fill-opacity:1;" d="M 8.640625 11.085938 C 8.136719 11.085938 7.730469 11.492188 7.730469 11.996094 L 7.730469 19.5 L 8.640625 19.5 L 8.640625 12.453125 C 8.640625 12.199219 8.84375 11.996094 9.097656 11.996094 L 12.734375 11.996094 C 12.984375 11.996094 13.1875 12.199219 13.1875 12.453125 L 13.1875 19.5 L 14.097656 19.5 L 14.097656 11.996094 C 14.097656 11.492188 13.691406 11.085938 13.1875 11.085938 Z M 8.640625 11.085938 "/>
</g>
</svg>
